X: 222
M: 6/8
L: 1/8
K: D
fdB Ade | fge d2 :|\
|: g |\
f2g a3 | b2g afd |
f>ga bc'd' | d>ed cBA |\
gbg faf | ede fdB |\
dcB Aag | fge d2 :|

